azure-patterns/svg-flip-calendar.svg

<svg xmlns="http://www.w3.org/2000/svg" viewBox="0 0 157 157">
                                
                            
<path d="M148.958 32.0164H7.81494V149.635H148.958V32.0164Z" fill="#0078D4"></path>
<path d="M134.101 23.3496V8.49243H111.815V23.3496H44.9578V8.49243H22.6721V23.3496H7.81494V38.2067H148.958V23.3496H134.101Z" fill="black"></path>
<path d="M52.3862 60.4924H22.6719V90.2067H52.3862V60.4924Z" fill="#50E6FF"></path>
<path d="M134.101 60.4924H104.386V90.2067H134.101V60.4924Z" fill="#50E6FF"></path>
<path d="M93.2685 60.4924H63.5542V90.2067H93.2685V60.4924Z" fill="#50E6FF"></path>
<path d="M52.3862 105.064H22.6719V134.778H52.3862V105.064Z" fill="#50E6FF"></path>
<path d="M134.101 105.064H104.386V134.778H134.101V105.064Z" fill="#50E6FF"></path>
<path d="M93.2685 105.064H63.5542V134.778H93.2685V105.064Z" fill="#50E6FF"></path>
</svg>

<svg xmlns="http://www.w3.org/2000/svg" viewBox="0 0 157 157"><path d="M148.958 32.016H7.815v117.619h141.143V32.016z" fill="#0078D4"/><path d="M134.101 23.35V8.492h-22.286V23.35H44.958V8.492H22.672V23.35H7.815v14.857h141.143V23.35h-14.857z"/><path d="M52.386 60.492H22.672v29.715h29.714V60.492zM134.101 60.492h-29.715v29.715h29.715V60.492zM93.269 60.492H63.553v29.715H93.27V60.492zM52.386 105.064H22.672v29.714h29.714v-29.714zM134.101 105.064h-29.715v29.714h29.715v-29.714zM93.269 105.064H63.553v29.714H93.27v-29.714z" fill="#50E6FF"/></svg>
